X:1
T:Col. Boyle of Shewalton
T:Col. Boyle of Shewalton
T:Nathaniel Gow (1763-1831)
C:Nathaniel Gow (1763-1831)
L:1/8
M:6/8
K:Bb
V:1 treble 
V:1
 (3A/B/G/ | F>GF{Bc} d2 c/B/ | G>AG{AB} c>BA/G/ | F>GF{Bc} d2 B/A/ | G>BA B2 (3A/B/G/ | %5
 F>GF{Bc} d2 c/B/ | G>AG{AB} c>BA/G/ | F>GF{Bc} d2 B/A/ | G>BA B2 |: f | f>gf{ga} b>ag | f>gf fdB | %12
 f>gf{ba} b>ag |{b} fed{d} c2 F | F>GF{Bc} d2 c/B/ | G>AG{AB} c>BA/G/ | F>GF{Bc} d2 B/A/ | %17
 G>BA B2 :| %18

